images/icon-line.svg

<svg width="58" height="58" viewBox="0 0 58 58" fill="none" xmlns="http://www.w3.org/2000/svg">
<g filter="url(#filter0_d_1_549)">
<rect x="4" width="50" height="50" rx="19" fill="#4D8DFF"/>
<path d="M29.4821 24.6429L30.6518 25.1875L32.3929 24.6696V23.4554C32.3929 21.3929 30.6518 19.7411 28.5714 19.7411C26.5 19.7411 24.75 21.3839 24.75 23.4286V28.9643C24.75 29.4732 24.3393 29.875 23.8393 29.875C23.3393 29.875 22.9286 29.4732 22.9286 28.9643V26.625H20C20 28.9732 20 29 20 29C20 31.1161 21.7143 32.8304 23.8304 32.8304C25.9286 32.8304 27.6607 31.1429 27.6607 29.0536V23.5893C27.6607 23.0893 28.0714 22.6786 28.5714 22.6786C29.0714 22.6786 29.4821 23.0893 29.4821 23.5893V24.6429ZM34.2143 26.625V29.0804C34.2143 29.5804 33.8036 29.9821 33.3036 29.9821C32.8036 29.9821 32.3929 29.5804 32.3929 29.0804V26.6696L30.6518 27.1875L29.4821 26.6429V29.0357C29.4821 31.1339 31.2054 32.8304 33.3125 32.8304C35.4286 32.8304 37.1429 31.1161 37.1429 29C37.1429 29 37.1429 28.9732 37.1429 26.625H34.2143Z" fill="white"/>
</g>
<defs>
<filter id="filter0_d_1_549" x="0" y="0" width="58" height="58" filterUnits="userSpaceOnUse" color-interpolation-filters="sRGB">
<feFlood flood-opacity="0" result="BackgroundImageFix"/>
<feColorMatrix in="SourceAlpha" type="matrix" values="0 0 0 0 0 0 0 0 0 0 0 0 0 0 0 0 0 0 127 0" result="hardAlpha"/>
<feOffset dy="4"/>
<feGaussianBlur stdDeviation="2"/>
<feColorMatrix type="matrix" values="0 0 0 0 0 0 0 0 0 0 0 0 0 0 0 0 0 0 0.25 0"/>
<feBlend mode="normal" in2="BackgroundImageFix" result="effect1_dropShadow_1_549"/>
<feBlend mode="normal" in="SourceGraphic" in2="effect1_dropShadow_1_549" result="shape"/>
</filter>
</defs>
</svg>

<svg width="58" height="58" fill="none" xmlns="http://www.w3.org/2000/svg"><g filter="url(#a)"><rect x="4" width="50" height="50" rx="19" fill="#4D8DFF"/><path d="m29.482 24.643 1.17.544 1.74-.517v-1.215c0-2.062-1.74-3.714-3.82-3.714-2.072 0-3.822 1.643-3.822 3.688v5.535c0 .51-.41.911-.91.911s-.911-.402-.911-.91v-2.34H20V29a3.83 3.83 0 0 0 3.83 3.83c2.099 0 3.83-1.687 3.83-3.776v-5.465c0-.5.411-.91.911-.91s.911.41.911.91v1.054Zm4.732 1.982v2.455c0 .5-.41.902-.91.902s-.911-.402-.911-.902v-2.41l-1.741.517-1.17-.544v2.393c0 2.098 1.723 3.794 3.83 3.794a3.83 3.83 0 0 0 3.83-3.83v-2.375h-2.928Z" fill="#fff"/></g><defs><filter id="a" x="0" y="0" width="58" height="58" filterUnits="userSpaceOnUse" color-interpolation-filters="sRGB"><feFlood flood-opacity="0" result="BackgroundImageFix"/><feColorMatrix in="SourceAlpha" values="0 0 0 0 0 0 0 0 0 0 0 0 0 0 0 0 0 0 127 0" result="hardAlpha"/><feOffset dy="4"/><feGaussianBlur stdDeviation="2"/><feColorMatrix values="0 0 0 0 0 0 0 0 0 0 0 0 0 0 0 0 0 0 0.25 0"/><feBlend in2="BackgroundImageFix" result="effect1_dropShadow_1_549"/><feBlend in="SourceGraphic" in2="effect1_dropShadow_1_549" result="shape"/></filter></defs></svg>
